X:184
T: ES WOLLTE EIN MAEDCHEN IN DER FRUEH AUFSTEHN
N: E0096E
O: Europa, Mitteleuropa, Deutschland, Taunus; Rheinland
R: erzaehlendes Volks - Lied, Sage, Liebe, Leid, Tod
M: 3/4
L: 1/8
K: F
C2 | A2A2G2 | F2F2
dd | c3BA2 | G4z2
c2c2c2 | A3Bc2
dcBAGF | G3AB2
c2A2G2 | F4z2
c2c2c2 | A3Bc2
dcBAGF | G3AB2
c2A2G2 | F4

